!!!OTL: Vom geistlichen Jaeger.
!!!ARE: Europa, Mitteleuropa, Deutschland
!!!SCT: A0598
!!!TXL: @@DE
!!!YEM: Copyright 1995, estate of Helmut Schaffrath.
**kern	**text
!! Mixed meters:  4/2; 6/2
*M4/2	*
*met(c|)	*
*clefC4	*
*k[b-]	*
*F:ion	*
!LO:TX:a:t=jon. F.	!
{1F	Es
=1	=1
2F	wolt
2G	gut
2A	jä-
2B-	-ger
=2	=2
*M6/2	*
1c	ja-
1c	-gen,
2r}	.
{2c	wolt
=3	=3
*M4/2	*
!LO:TUP:a	!
3B-	ja-
3A	-gen
3B-	ins
!LO:TUP:a	!
3c	hi-
3%2B-	-mels
=4	=4
1A	thron,
2r}	.
{2A	was
=5	=5
2A	bgegnt
2c	im
2B-	auf
2A	der
=6	=6
*M6/2	*
*lig	*
2G	hei-
2F	.
*Xlig	*
1E}	-den?
{2.F	Ma-
4F	-ri-
=7	=7
*M4/2	*
2A	-a
2B-	die
2A	Jungfraw
2G	.
=8	=8
1F/ll}	ſchon.
==	==
!!!GTL: Geistliche Volkslieder
!!!AGN: Romanze, Ballade, Lied, religioeses Lied
!! Speiersches Gsgb 1617 fol. 1
!!!ONB: ESAC (Essen Associative Code) Database: ALTDEU
!!!AMT: irregular
!!!AIN: vox
!!!EED: Helmut Schaffrath
!!!EEV: 1.0
!!!RDF**kern: l = terminal long
!!!AMD: Ionian
!!!URL-scan: https://rosdok.uni-rostock.de/mcrviewer/recordIdentifier/rosdok_ppn738218359/iview2/phys_0779.iview2?x=143.2775742772492&y=1263.228734432254&scale=0.7052832894250849&rotation=0&layout=singlePageLayout&logicalDiv=log_0021
!!!ENC: Anna Maria Matuszewska
!!!EEV: 2024/22/03
*-	*-
